X:1
T:The Power of God
T:The Power of God
T:Frederick Arthur Graves
T:Frederick Arthur Graves, 1899
T:Public Domain Courtesy of the Cyber Hymnal™
T:Public Domain Courtesy of the Cyber Hymnal™
T:Public Domain Courtesy of the Cyber Hymnal™
C:Frederick Arthur Graves
Z:Public Domain
Z:Courtesy of the Cyber Hymnal™
%%score ( 1 2 ) ( 3 4 ) 5
L:1/8
Q:1/4=100
M:4/4
K:Bb
V:1 treble 
V:2 treble 
V:3 bass 
V:4 bass 
V:5 bass 
V:1
 F2 | F>F D>E F/ d3 B/ | c>B B>G F2- F>F | F>F D>F B>B A>B | c6 (F>F) | F>F D>E F<d (B>B) | %6
w: 1.~When|A- bra- ham and Sa- rah had|prom- ised them a son, * They|were sur- prised and knew not what to|say; But~they *|knew what God had prom- ised He~was *|
w: 2.~When|Mo- ses want- ed wa- ter to|quench the peo- ple’s thirst, * He|knew that God would then pro- vide a|way; Al- *|though his rod was use- ful he *|
w: 3.~When|Mo- ses made a ser- pent and|placed it on a pole, * The|bit- ten ones were told to look that|way, And *|then while they were look- ing Jehovah- *|
w: 4.~When|Joshu- a was com- mand- er, he|spoke— the sun stood still, * The|moon its on- ward course was made to|stay; Thus *|he won a might- y bat- tle,~for~he *|
w: 5.~When|Na- a- man, the le- per, be-|fore E- li- sha stood, * He|thought he knew just what the seer would|say, But~he *|had to wash in Jor- dan, though~he *|
 c>B B>G F2 F>F | G>G B>B A>A c>B | B6 z x ||"^Refrain" [Dd] x6 | %10
w: a- ble to per- form: And the|pow’r of God is just the same to-|day.||
w: had the pow- er first: And the|pow’r of God is just the same to-|day.|The|
w: roph- i made them whole: And the|pow’r of God is just the same to-|day.||
w: did his Fa- ther’s will: And the|pow’r of God is just the same to-|day.||
w: thought it was- n’t good: And the|pow’r of God is just the same to-|day.||
 [Fc]>[Fc] [Fc]>[Fc] [Fc]>[Fc] [FB]>[Fc] | [Fd]6 z [DB] | [Fc]>[Fc] [Fc]>[Fc] | %13
w: |||
w: pow’r of God is just the same to-|day, It|does- n’t mat- ter|
w: |||
w: |||
w: |||
 [=Ec]>[EB] [EA]>[EG] | F6 z [DF] | [DF]>[DF] [B,D]>[CE] [DF]/ [Fd]3 [DB]/ | %16
w: |||
w: what the peo- ple|say; What-|ev- er God has prom- ised He’s|
w: |||
w: |||
w: |||
 [Ec]>[EB] [EB]>[EG] [DF]2 [DF]>[DF] | [EG]>[EG] [EB]>[EB] [EA]>[EA] [Ec]>[Ec] | [DB]6 |] %19
w: |||
w: a- ble to per- form: And the|pow’r of God is just the same to-|day.|
w: |||
w: |||
w: |||
V:2
 F2 | x8 | x8 | x8 | x8 | x8 | x8 | x8 | x8 || x7 | x8 | x8 | x4 | x4 | (C>CD>D E2) x2 | x8 | x8 | %17
 x8 | x6 |] %19
V:3
 [F,B,D]2 | z2 [F,B,D]2 z2 [F,B,D]2 | z2 [G,B,E]2 z2 [F,B,D]3/2 z/ | z2 [F,B,D]2 z2 [F,B,D]2 | %4
w: ~|~ ~|~ ~|~ ~|
 z2 ([F,A,CE]2 [F,A,CE]2 [F,A,CE]2) | z2 [F,B,D]2 z2 [F,B,D]2 | z2 [G,B,E]2 z2 [F,B,D]2 | %7
w: ~ * *|~ ~|~ ~|
 z2 [G,B,E]2 z2 [F,A,CE]2 | [F,B,D]6 z x || [B,,B,] x6 | %10
w: ~ ~|~|~|
 [F,A,]>[F,A,] [F,A,]>[F,A,] [F,A,]>[F,A,] [G,A,]>[F,A,] | B,6 z [B,,B,] | %12
w: ~ ~ ~ ~ ~ ~ ~ is|just the|
 [F,A,]>[F,A,] [F,A,]>[F,A,] | [C,G,]>[C,G,] [C,C]>[C,B,] | A,>A,B,>B, C2 z [B,,B,] | %15
w: same to- day, ~|~ ~ ~ ~|~ ~ ~ ~ what the|
 [B,,B,]>[B,,B,] [B,,F,]>[B,,F,] [B,,B,]/ [B,,B,]3 [B,,B,]/ | %16
w: peo- ple say; * * * *|
 [E,G,]>[E,G,] [E,G,]>[E,B,] [B,,B,]2 [B,,B,]>[B,,B,] | %17
w: |
 [E,B,]>[E,B,] [E,G,]>[E,G,] [F,C]>[F,C] [F,A,]>[F,A,] | [B,,B,]6 |] %19
w: ||
V:4
 x2 | x8 | x8 | x8 | x8 | x8 | x8 | x8 | x8 || x7 | x8 | B,,>B,, D,>F, B,2 x2 | x4 | x4 | F,6 x2 | %15
 x8 | x8 | x8 | x6 |] %19
V:5
 z2 | [B,,,B,,]2 z2 [B,,,B,,]2 z2 | [E,,E,]2 z2 [B,,,B,,]2 z3/2 z/ | [B,,,B,,]2 z2 x4 | %4
 [B,,,B,,]2 z2 x4 | [F,,,F,,]6 z2 | [B,,,B,,]2 z2 [B,,,B,,]2 z2 | [E,,E,]2 z2 [B,,,B,,]2 z2 | %8
 [E,,E,]2 z2 F,,2 z2 || B,,6 z | x8 | x8 | x4 | x4 | x8 | x8 | x8 | x8 | x6 |] %19

